public/img/footer__address.svg

<svg width="22" height="28" viewBox="0 0 22 28" fill="none" xmlns="http://www.w3.org/2000/svg">
<g clip-path="url(#clip0_64_269)">
<path d="M10.9998 28C10.8523 28 10.7081 27.954 10.5855 27.8677C10.4782 27.7921 7.9225 25.9836 5.33133 23.0996C1.79367 19.1627 0 15.2929 0 11.5976C0 5.20258 4.93467 0 10.9998 0C17.0653 0 22 5.20258 22 11.5976C22 15.2929 20.2063 19.1625 16.6688 23.0996C14.0773 25.9836 11.5215 27.7921 11.414 27.8677C11.2915 27.954 11.1473 28 10.9998 28ZM10.9998 1.57465C5.758 1.57465 1.4935 6.0711 1.4935 11.5976C1.4935 18.5449 9.11967 24.8103 10.9998 26.2491C12.8803 24.8104 20.5065 18.5449 20.5065 11.5976C20.5065 6.0711 16.242 1.57465 10.9998 1.57465Z" fill="white"/>
<path d="M10.9996 15.9885C8.70345 15.9885 6.83545 14.0187 6.83545 11.5978C6.83545 9.17683 8.70345 7.20703 10.9996 7.20703C13.2961 7.20703 15.1641 9.17683 15.1641 11.5978C15.1641 14.0187 13.2961 15.9885 10.9996 15.9885ZM10.9996 8.78151C9.52712 8.78151 8.32895 10.0448 8.32895 11.5976C8.32895 13.1504 9.52712 14.4137 10.9996 14.4137C12.4724 14.4137 13.6706 13.1504 13.6706 11.5976C13.6706 10.0448 12.4724 8.78151 10.9996 8.78151Z" fill="white"/>
</g>
<defs>
<clipPath id="clip0_64_269">
<rect width="22" height="28" fill="white"/>
</clipPath>
</defs>
</svg>

<svg width="22" height="28" fill="none" xmlns="http://www.w3.org/2000/svg"><g clip-path="url(#clip0_64_269)" fill="#fff"><path d="M11 28a.719.719 0 01-.415-.132c-.107-.076-2.663-1.884-5.254-4.768C1.794 19.163 0 15.293 0 11.598 0 5.203 4.935 0 11 0s11 5.203 11 11.598c0 3.695-1.794 7.565-5.331 11.502-2.592 2.884-5.148 4.692-5.255 4.768A.719.719 0 0111 28zm0-26.425c-5.242 0-9.506 4.496-9.506 10.023 0 6.947 7.626 13.212 9.506 14.651 1.88-1.439 9.506-7.704 9.506-14.651 0-5.527-4.264-10.023-9.506-10.023z"/><path d="M11 15.989c-2.297 0-4.165-1.97-4.165-4.391 0-2.421 1.868-4.391 4.165-4.391 2.296 0 4.164 1.97 4.164 4.39 0 2.422-1.868 4.392-4.164 4.392zm0-7.207c-1.473 0-2.671 1.263-2.671 2.816 0 1.552 1.198 2.816 2.67 2.816 1.473 0 2.672-1.264 2.672-2.816 0-1.553-1.199-2.816-2.671-2.816z"/></g><defs><clipPath id="clip0_64_269"><path fill="#fff" d="M0 0h22v28H0z"/></clipPath></defs></svg>
